assets/images/ico_logout.svg

<svg width="15" height="16" viewBox="0 0 15 16" fill="none" xmlns="http://www.w3.org/2000/svg">
<path fill-rule="evenodd" clip-rule="evenodd" d="M1.97151 14.5735V1.95588H6.12471C6.39187 1.95588 6.61046 1.74081 6.61046 1.47794C6.61046 1.21507 6.39187 1 6.12471 1H1.48575C1.21859 1 1 1.21507 1 1.47794V15.0515C1 15.3143 1.21859 15.5294 1.48575 15.5294H6.12471C6.39187 15.5294 6.61046 15.3143 6.61046 15.0515C6.61046 14.7886 6.39187 14.5735 6.12471 14.5735H1.97151ZM11.2251 5.30147L13.8725 7.93015C14.0425 8.12132 14.0425 8.40809 13.8725 8.59926L11.2251 11.2279C11.128 11.3235 11.0065 11.3713 10.8851 11.3713C10.7637 11.3713 10.6422 11.3235 10.5451 11.2279C10.3508 11.0607 10.3508 10.75 10.5451 10.5588L12.3667 8.74265H4.9589C4.69173 8.74265 4.47314 8.52757 4.47314 8.26471C4.47314 8.00184 4.69173 7.78676 4.9589 7.78676H12.3667L10.5451 5.97059C10.3508 5.77941 10.3508 5.49265 10.5451 5.30147C10.7394 5.11029 11.0308 5.11029 11.2251 5.30147Z" fill="#ffffff"/>
<path d="M1.97151 1.95588V1.60588H1.62151V1.95588H1.97151ZM1.97151 14.5735H1.62151V14.9235H1.97151V14.5735ZM13.8725 7.93015L14.134 7.69756L14.1268 7.68944L14.1191 7.68179L13.8725 7.93015ZM11.2251 5.30147L11.4717 5.05311L11.4706 5.05199L11.2251 5.30147ZM13.8725 8.59926L14.1191 8.84763L14.1268 8.83997L14.134 8.83185L13.8725 8.59926ZM11.2251 11.2279L11.4706 11.4774L11.4717 11.4763L11.2251 11.2279ZM10.5451 11.2279L10.7905 10.9785L10.7822 10.9703L10.7734 10.9627L10.5451 11.2279ZM10.5451 10.5588L10.7906 10.8083L10.7922 10.8067L10.5451 10.5588ZM12.3667 8.74265L12.6138 8.9905L13.2134 8.39265H12.3667V8.74265ZM12.3667 7.78676V8.13676H13.2134L12.6138 7.53891L12.3667 7.78676ZM10.5451 5.97059L10.7922 5.72273L10.7905 5.7211L10.5451 5.97059ZM10.5451 5.30147L10.7905 5.55096L10.5451 5.30147ZM1.62151 1.95588V14.5735H2.32151V1.95588H1.62151ZM6.12471 1.60588H1.97151V2.30588H6.12471V1.60588ZM6.26046 1.47794C6.26046 1.54218 6.20395 1.60588 6.12471 1.60588V2.30588C6.5798 2.30588 6.96046 1.93944 6.96046 1.47794H6.26046ZM6.12471 1.35C6.20395 1.35 6.26046 1.4137 6.26046 1.47794H6.96046C6.96046 1.01645 6.5798 0.65 6.12471 0.65V1.35ZM1.48575 1.35H6.12471V0.65H1.48575V1.35ZM1.35 1.47794C1.35 1.4137 1.40652 1.35 1.48575 1.35V0.65C1.03066 0.65 0.65 1.01645 0.65 1.47794H1.35ZM1.35 15.0515V1.47794H0.65V15.0515H1.35ZM1.48575 15.1794C1.40652 15.1794 1.35 15.1157 1.35 15.0515H0.65C0.65 15.513 1.03066 15.8794 1.48575 15.8794V15.1794ZM6.12471 15.1794H1.48575V15.8794H6.12471V15.1794ZM6.26046 15.0515C6.26046 15.1157 6.20395 15.1794 6.12471 15.1794V15.8794C6.5798 15.8794 6.96046 15.513 6.96046 15.0515H6.26046ZM6.12471 14.9235C6.20395 14.9235 6.26046 14.9872 6.26046 15.0515H6.96046C6.96046 14.59 6.5798 14.2235 6.12471 14.2235V14.9235ZM1.97151 14.9235H6.12471V14.2235H1.97151V14.9235ZM14.1191 7.68179L11.4717 5.05311L10.9785 5.54983L13.6259 8.17851L14.1191 7.68179ZM14.134 8.83185C14.422 8.50805 14.422 8.02136 14.134 7.69756L13.611 8.16273C13.663 8.22128 13.663 8.30813 13.611 8.36668L14.134 8.83185ZM11.4717 11.4763L14.1191 8.84763L13.6259 8.3509L10.9785 10.9796L11.4717 11.4763ZM10.8851 11.7213C11.1004 11.7213 11.3095 11.636 11.4706 11.4774L10.9797 10.9785C10.9465 11.0111 10.9126 11.0213 10.8851 11.0213V11.7213ZM10.2996 11.4774C10.4607 11.636 10.6698 11.7213 10.8851 11.7213V11.0213C10.8576 11.0213 10.8237 11.0111 10.7905 10.9785L10.2996 11.4774ZM10.2996 10.3093C9.97596 10.6278 9.95019 11.1776 10.3167 11.4932L10.7734 10.9627C10.7605 10.9516 10.7493 10.9325 10.7493 10.9023C10.7493 10.8717 10.7617 10.8367 10.7905 10.8083L10.2996 10.3093ZM12.1195 8.49479L10.298 10.311L10.7922 10.8067L12.6138 8.9905L12.1195 8.49479ZM4.9589 9.09265H12.3667V8.39265H4.9589V9.09265ZM4.12314 8.26471C4.12314 8.7262 4.50381 9.09265 4.9589 9.09265V8.39265C4.87966 8.39265 4.82314 8.32895 4.82314 8.26471H4.12314ZM4.9589 7.43676C4.50381 7.43676 4.12314 7.80321 4.12314 8.26471H4.82314C4.82314 8.20047 4.87966 8.13676 4.9589 8.13676V7.43676ZM12.3667 7.43676H4.9589V8.13676H12.3667V7.43676ZM10.298 6.21844L12.1195 8.03462L12.6138 7.53891L10.7922 5.72273L10.298 6.21844ZM10.2996 5.05199C9.96593 5.38029 9.96593 5.89177 10.2996 6.22007L10.7905 5.7211C10.7575 5.68859 10.7493 5.65789 10.7493 5.63603C10.7493 5.61416 10.7575 5.58347 10.7905 5.55096L10.2996 5.05199ZM11.4706 5.05199C11.1401 4.72679 10.6301 4.72679 10.2996 5.05199L10.7905 5.55096C10.8486 5.4938 10.9216 5.4938 10.9797 5.55096L11.4706 5.05199Z" fill="#ffffff"/>
</svg>

<svg width="15" height="16" fill="none" xmlns="http://www.w3.org/2000/svg"><path fill-rule="evenodd" clip-rule="evenodd" d="M1.972 14.573V1.956h4.153a.483.483 0 00.485-.478A.483.483 0 006.125 1h-4.64A.483.483 0 001 1.478v13.574c0 .262.219.477.486.477h4.639a.483.483 0 00.485-.477.483.483 0 00-.485-.479H1.972zm9.253-9.272l2.648 2.63c.17.19.17.477 0 .668l-2.648 2.629a.483.483 0 01-.34.143.483.483 0 01-.34-.143c-.194-.167-.194-.478 0-.67l1.822-1.815H4.959a.483.483 0 01-.486-.478c0-.263.219-.478.486-.478h7.408L10.545 5.97a.457.457 0 010-.67.475.475 0 01.68 0z" fill="#fff"/><path d="M1.972 1.956v-.35h-.35v.35h.35zm0 12.617h-.35v.35h.35v-.35zm11.9-6.643l.262-.232-.007-.009-.008-.007-.246.248zm-2.647-2.629l.247-.248-.001-.001-.246.25zM13.873 8.6l.246.249.008-.008.007-.008-.261-.233zm-2.648 2.629l.246.25v-.002l-.246-.248zm-.68 0l.245-.25-.008-.008-.009-.007-.228.265zm0-.67l.246.25.001-.001-.247-.248zm1.822-1.815l.247.248.6-.598h-.847v.35zm0-.956v.35h.846l-.6-.598-.246.248zM10.545 5.97l.247-.248-.002-.002-.245.25zm0-.67l.245.25-.245-.25zM1.622 1.956v12.617h.7V1.956h-.7zm4.503-.35H1.972v.7h4.153v-.7zm.135-.128a.133.133 0 01-.135.128v.7a.833.833 0 00.835-.828h-.7zm-.135-.128c.079 0 .135.064.135.128h.7A.833.833 0 006.125.65v.7zm-4.64 0h4.64v-.7h-4.64v.7zm-.135.128c0-.064.057-.128.136-.128v-.7a.833.833 0 00-.836.828h.7zm0 13.574V1.478h-.7v13.574h.7zm.136.127a.133.133 0 01-.136-.127h-.7c0 .461.38.827.836.827v-.7zm4.639 0h-4.64v.7h4.64v-.7zm.135-.127a.133.133 0 01-.135.127v.7a.833.833 0 00.835-.827h-.7zm-.135-.128c.079 0 .135.063.135.128h.7a.833.833 0 00-.835-.829v.7zm-4.153 0h4.153v-.7H1.972v.7zm12.147-7.242l-2.647-2.629-.493.497 2.647 2.629.493-.497zm.015 1.15a.853.853 0 000-1.134l-.523.465a.153.153 0 010 .204l.523.465zm-2.662 2.644l2.647-2.628-.493-.497-2.647 2.629.493.496zm-.587.245a.833.833 0 00.586-.244l-.491-.498a.134.134 0 01-.095.042v.7zm-.585-.244c.16.159.37.244.585.244v-.7a.134.134 0 01-.095-.043l-.49.5zm0-1.168c-.324.319-.35.869.017 1.184l.456-.53a.078.078 0 01-.024-.06.14.14 0 01.041-.095l-.49-.499zm1.82-1.814l-1.822 1.816.494.496 1.822-1.816-.495-.496zm-7.161.598h7.408v-.7H4.959v.7zm-.836-.828c0 .461.38.828.836.828v-.7a.133.133 0 01-.136-.128h-.7zm.836-.828a.833.833 0 00-.836.828h.7c0-.065.057-.128.136-.128v-.7zm7.408 0H4.959v.7h7.408v-.7zm-2.069-1.219l1.822 1.817.494-.496-1.822-1.816-.494.495zm.002-1.166a.807.807 0 000 1.168l.49-.499a.12.12 0 01-.04-.085.12.12 0 01.04-.085l-.49-.499zm1.17 0a.825.825 0 00-1.17 0l.49.499c.059-.057.132-.057.19 0l.49-.499z" fill="#fff"/></svg>
